X:1
T:BLITHELY STRODE THE YOUTH
M:2/4
Q:1/4=110
K:G
c6e2|d2cBA2dc|B2d2c2e2|d2cBA2d2|G4G2=F2|E2E2DEFD|
G2B2d2d2|c2e2dcBA|G7/2||
